X:3409
T:Rapp-polska e. Karl Ersa
S:Karl Eriksson
D:Folk Tunes From Jämtland (2001)
N:Fritt efter inspelning med Rickard Näslin och Göran Andersson på skivan: Folk Tunes From Jämtland (2001)
N:se: http://www.sfi.se/sv/svensk-filmdatabas/Item/?itemid=38602&type=MOVIE&iv=Story
N:lyssna: http://open.spotify.com/track/4FE1URRzLx8xrERYiKzy3F
N:Se även http://www.spelmansforbundet.se/html/noter_1-100.html (nr.89)
N:Svenska Låtar Jämtland-Härjedalen nr 534
R:Polska
O:Husås, Lit s:n, Jämtland
Z:Per Oldberg 2014-06
M:3/4
L:1/16
Q:1/4=96
V:1
V:2
K:Dmaj
V:1
ABAG FDFA d2d2 | ABAG FDFA f3f | e2eb g2ga f2fg | egec d2AG F2G2 | 
V:2
FGFE DA,DF F2F2 | FGFE DA,DF d3d | c2cg e2ef d2de | cecA F2FE D2E2 | 
V:1
ABAG FDFA d2d2 | ABAG FDFA f3f | e2eb g2ga f2fg | egec d4- d2A2 ::
V:2
FGFE DA,DF F2F2 | FGFE DA,DF d3d | c2cg e2ef d2de | cecA F4-F2F2 :: 
V:1
[AD]3g g2f2f4 | ageg egeg f4 |  A2gf efed c2d2 | egec d2AG F2E2 | 
V:2
[A,F]3e e2d2 d4 | fece cece d4 | E2ed cdcB A2B2 | cecA F2FE D2C2 | 
V:1
[AD]3g g2f2f4 | ageg egeg f4 |  A2gf efed c2d2 |1 egec d4- d2A2:|2egec d8 ||  
V:2
[I:repbra = 0][A,F]3e e2d2 d4 | fece cece d4 | E2ed cdcB A2B2 |1 cecA [A,F]4- [A,F]2[A,F]2 :|2 cecA [A,F]8 || 
(:musicend:)
(:music:)
